X:1
T:Schiarazula Marazula
T:Giorgio Mainerio (1545-1582)
%%score 1 2 3
L:1/8
M:none
K:F
V:1 treble+8 nm="Soprano Recorder"
V:2 treble nm="Alto Recorder"
V:3 treble nm="Violin"
V:1
|:"Dm" a2 | (a2 g2) a2 g2 | .f2 .f2 .f2 e2 | d2 c2 d2 e2 | .d2 .d2 .d2 a2 | a2 g2 a2 g2 | %6
 .f2 .f2 .f2 e2 | d2 c2 d2 e2 | .d2 .d2 .d2 gf |"C" e2 d2 e2 f2 | e2 d2 e2 ag |"Dm" f2 d2 d2 c2 | %12
 .d2 .d2 .d2 gf |"C" e2 d2 e2 f2 | e2 d2 e2 ag |"Dm" f2 d2 d2 c2 | d6 :| %17
V:2
[K:C]|: a2 | (a2 g2) a2 g2 | .f2 .f2 .f2 e2 | d2 c2 d2 e2 | .d2 .d2 .d2 a2 | a2 g2 a2 g2 | %6
 .f2 .f2 .f2 e2 | d2 c2 d2 e2 | .d2 .d2 .d2 gf | e2 d2 e2 f2 | e2 d2 e2 ag | f2 d2 d2 c2 | %12
 .d2 .d2 .d2 gf | e2 d2 e2 f2 | e2 d2 e2 ag | f2 d2 d2 c2 | d6 :| %17
V:3
[K:C]|: d2 | [Ad]8 | [Ad]4 d2 cB | [Ad]8 | [Ad]8 | [Ad]8 | [Ad]4 d2 cB | [Ad]8 | [Ad]8 | [Gc]8 | %10
 [Gc]8 | [Ad]8 | [Ad]4 A2 d2 | [Gc]8 | [Gc]8 | [Add]4 [Ad]4 | [Ad]6 :| %17

